svg/aws-ecs.svg

<?xml version="1.0" encoding="UTF-8"?>
<svg xmlns="http://www.w3.org/2000/svg" xmlns:xlink="http://www.w3.org/1999/xlink" width="32" height="32" viewBox="0 0 32 32">
<path fill-rule="nonzero" fill="rgb(92.941176%, 44.313725%, 0%)" fill-opacity="1" d="M 0.203125 0.203125 L 31.796875 0.203125 L 31.796875 31.796875 L 0.203125 31.796875 Z M 0.203125 0.203125 "/>
<path fill-rule="nonzero" fill="rgb(100%, 100%, 100%)" fill-opacity="1" d="M 26.414062 19.4375 L 22.867188 17.308594 L 22.867188 12.246094 C 22.867188 12.085938 22.785156 11.941406 22.648438 11.859375 L 17.550781 8.886719 L 17.550781 4.601562 L 26.414062 9.839844 Z M 27.082031 9.203125 L 17.332031 3.441406 C 17.195312 3.363281 17.027344 3.363281 16.886719 3.4375 C 16.75 3.519531 16.664062 3.664062 16.664062 3.824219 L 16.664062 9.140625 C 16.664062 9.300781 16.75 9.445312 16.882812 9.527344 L 21.984375 12.5 L 21.984375 17.558594 C 21.984375 17.71875 22.0625 17.859375 22.199219 17.941406 L 26.628906 20.597656 C 26.765625 20.683594 26.9375 20.6875 27.074219 20.605469 C 27.210938 20.527344 27.292969 20.378906 27.296875 20.222656 L 27.296875 9.582031 C 27.296875 9.425781 27.214844 9.285156 27.082031 9.203125 M 15.976562 27.691406 L 5.585938 22.167969 L 5.585938 9.839844 L 14.449219 4.601562 L 14.449219 8.898438 L 9.78125 11.867188 C 9.652344 11.949219 9.574219 12.09375 9.574219 12.246094 L 9.574219 19.773438 C 9.574219 19.941406 9.667969 20.09375 9.816406 20.167969 L 15.773438 23.269531 C 15.902344 23.335938 16.058594 23.339844 16.183594 23.269531 L 21.964844 20.28125 L 25.523438 22.421875 Z M 26.640625 22.054688 L 22.210938 19.394531 C 22.078125 19.316406 21.914062 19.3125 21.777344 19.382812 L 15.980469 22.378906 L 10.460938 19.507812 L 10.460938 12.488281 L 15.128906 9.515625 C 15.257812 9.433594 15.335938 9.292969 15.335938 9.140625 L 15.335938 3.824219 C 15.335938 3.664062 15.25 3.519531 15.113281 3.4375 C 14.972656 3.363281 14.804688 3.363281 14.667969 3.441406 L 4.917969 9.203125 C 4.785156 9.285156 4.703125 9.425781 4.703125 9.582031 L 4.703125 22.4375 C 4.703125 22.597656 4.792969 22.75 4.9375 22.824219 L 15.773438 28.585938 C 15.835938 28.621094 15.90625 28.636719 15.980469 28.636719 C 16.050781 28.636719 16.125 28.617188 16.195312 28.582031 L 26.625 22.820312 C 26.761719 22.746094 26.851562 22.601562 26.855469 22.445312 C 26.855469 22.285156 26.777344 22.136719 26.640625 22.054688 M 26.640625 22.054688 "/>
</svg>

<svg role="img" viewBox="0 0 32 32" height="32" width="32" xmlns="http://www.w3.org/2000/svg"><path d="M.203.203h31.594v31.594H.203Zm0 0" fill="rgb(92.941176%, 44.313725%, 0%)"/><path d="m26.414 19.438-3.547-2.13v-5.062a.447.447 0 0 0-.219-.387l-5.097-2.972V4.602l8.863 5.238Zm.668-10.235-9.75-5.762a.462.462 0 0 0-.445-.003.451.451 0 0 0-.223.386v5.317c0 .16.086.304.219.386l5.101 2.973v5.059c0 .16.078.3.215.382l4.43 2.657c.137.086.308.09.445.007a.453.453 0 0 0 .223-.382V9.582a.444.444 0 0 0-.215-.379M15.977 27.691 5.586 22.168V9.84l8.863-5.238v4.296l-4.668 2.97a.45.45 0 0 0-.207.378v7.527c0 .168.094.32.242.395l5.957 3.102c.13.066.286.07.41 0l5.782-2.989 3.558 2.14Zm10.664-5.636-4.43-2.66a.45.45 0 0 0-.434-.012l-5.797 2.996-5.52-2.871v-7.02l4.669-2.972a.444.444 0 0 0 .207-.375V3.824a.451.451 0 0 0-.223-.386.462.462 0 0 0-.445.003l-9.75 5.762a.444.444 0 0 0-.215.379v12.856c0 .16.09.312.234.386l10.836 5.762a.42.42 0 0 0 .207.05c.07 0 .145-.019.215-.054l10.43-5.762a.443.443 0 0 0 .23-.375.45.45 0 0 0-.214-.39m0 0" fill="rgb(100%, 100%, 100%)"/></svg>
